X:297
T:B297-  Lumber me (L'homme Arme)
Q:1/4=120
L:1/4
M:4/4
K:Ddorain
d2ed|cBcA|AcBA|AGA2|\
AAAG|ABcA|BAGF|GEF2|\
FDFD|CGA2|c3/2 B/AG|FGED|\
DFED|FGA2|A/B/c/d/ fe|dcd2|]

